X: 35491
T: Rub The Bag
R: jig
M: 6/8
K: Dmajor
|:d2 d fed|cBA cec|BcB fdB|dcB fdB|
d2 d fed|cBA cec|ABA ecA|1 A/B/cA ecA:|2 A/B/cA d2 A||
ded def|efe efg|fgf f2 ^g|
aba a2 =g|fgf fga|gfe efe|~d3 fed|
cBA cec|BcB fdB|B/c/dB fdB|dcd fed|
cBA cec|ABA ecA|A/B/cA d3||

